resources/icons/notification_important_24dp.svg

<svg xmlns="http://www.w3.org/2000/svg" height="24px" viewBox="0 0 24 24" width="24px" fill="#cc0022"><path d="M10.01 21.01c0 1.1.89 1.99 1.99 1.99s1.99-.89 1.99-1.99h-3.98zM12 6c2.76 0 5 2.24 5 5v7H7v-7c0-2.76 2.24-5 5-5zm0-4.5c-.83 0-1.5.67-1.5 1.5v1.17C7.36 4.85 5 7.65 5 11v6l-2 2v1h18v-1l-2-2v-6c0-3.35-2.36-6.15-5.5-6.83V3c0-.83-.67-1.5-1.5-1.5zM11 8h2v4h-2zm0 6h2v2h-2z"/></svg>

<svg xmlns="http://www.w3.org/2000/svg" width="18" height="21.5" viewBox="0 0 18 21.5">
  <path id="notification_important_black_24dp" d="M10.01,21.01a1.99,1.99,0,0,0,3.98,0ZM12,6a5,5,0,0,1,5,5v7H7V11A5,5,0,0,1,12,6Zm0-4.5A1.5,1.5,0,0,0,10.5,3V4.17A6.993,6.993,0,0,0,5,11v6L3,19v1H21V19l-2-2V11a6.993,6.993,0,0,0-5.5-6.83V3A1.5,1.5,0,0,0,12,1.5ZM11,8h2v4H11Zm0,6h2v2H11Z" transform="translate(-3 -1.5)" fill="#c02"/>
</svg>
